!!!COM:	Bach, Johann Sebastian
!!!CDT:	1685/02/21/-1750/07/28/
!!!OTL@@DE:	Heilig, heilig
!!!SCT:	BWV 325
!!!PC#:	235
!!!AGN:	chorale
**kern	**kern	**kern	**kern
*ICvox	*ICvox	*ICvox	*ICvox
*Ibass	*Itenor	*Ialto	*Isoprn
*I"Bass	*I"Tenor	*I"Alto	*I"Soprano
*clefF4	*clefGv2	*clefG2	*clefG2
*k[b-]	*k[b-]	*k[b-]	*k[b-]
*F:	*F:	*F:	*F:
*M4/4	*M4/4	*M4/4	*M4/4
*met(c)	*met(c)	*met(c)	*met(c)
*MM100	*MM100	*MM100	*MM100
=1-	=1-	=1-	=1-
8FFL	8AL	4f	4cc
8GG	8B-J	.	.
8AA	4.c	4.f	4a
8BB-J	.	.	.
2C	.	.	2g
.	8G	16eLL	.
.	.	16dJJ	.
.	8cL	4e	.
.	8B-J	.	.
=2	=2	=2	=2
2FF;	2A;	2c;	2f;
8EL	4.c	4g	4cc
8CJ	.	.	.
8GL	.	4g	4dd
8GGJ	8B	.	.
=3	=3	=3	=3
2C;	2e;	2g;	2cc;
8DL	4A	4f	4ff
8CJ	.	.	.
8BBL	[4d	4g	4ff
8GGJ	.	.	.
=4	=4	=4	=4
8CL	8dL]	4g	4ee
8EJ	16cL	.	.
.	16BJJ	.	.
8AL	4.c	8eL	4ee
8GJ	.	16fL	.
.	.	16gJJ	.
8FL	.	[4a	4.dd
8DJ	16BLL	.	.
.	16AJJ	.	.
8GL	4B	8aL]	.
8GGJ	.	16gL	8cc
.	.	16fJJ	.
=5	=5	=5	=5
2C;	2G;	2e;	2cc;
4F	4A	4f	4cc
4BB-X	8B-XL	4f	4dd
.	8AJ	.	.
=6	=6	=6	=6
4C	4G	4e	4cc
8DL	8FL	8dL	4b-
8EJ	8GJ	8cJ	.
2F;	2A;	2c;	2a;
=7	=7	=7	=7
4r	4ry	4ry	4r
8CL	4c	8eL	4g
8EJ	.	8gJ	.
8FL	4c	4f	8aL
8GJ	.	.	8bJ
8AL	4c	4e	4cc
8GJ	.	.	.
=8	=8	=8	=8
8FL	[4d	8aL	4cc
8DJ	.	16gL	.
.	.	16fJJ	.
8GL	8dL]	4g	4b
8GGJ	16eL	.	.
.	16fJJ	.	.
2C;	2e;	2g;	2cc;
=9	=9	=9	=9
8FL	4f	4a	4cc
8E	.	.	.
8D	4f	4.a	4dd
8FJ	.	.	.
8GL	4d	.	4b-X
8F	.	16gLL	.
.	.	16fJJ	.
8E	4c	[4g	4b-
8CJ	.	.	.
=10	=10	=10	=10
8FL	4c	8gL]	4a
8E	.	16fL	.
.	.	16eJJ	.
8D	8B-L	4.f	4b-
8BB-J	8dJ	.	.
4C	4.c	.	4a
.	.	16eLL	.
.	.	16dJJ	.
4CC	.	4e	4g
.	8B-	.	.
=11	=11	=11	=11
2FF;	2A;	2c;	2f;
4r	4ry	4ry	4r
4F	[4c	[4f	4a
=12	=12	=12	=12
2C	4.c]	4f]	2g
.	.	4e	.
.	8B-	.	.
4D;	4A;	4d;	4f;
4E	4G	4g	4cc
=13	=13	=13	=13
4F	4d	4a	4cc
4G	4d	8gL	4b
.	.	8fJ	.
4A;	4c;	4e;	4cc;
4A	4c	4f	4ff
=14	=14	=14	=14
4B	4.d	4g	4ff
4c	.	4g	4ee
.	[8c	.	.
4F	8cL]	4a	2dd
.	16BL	.	.
.	16AJJ	.	.
4G	4B	8gL	.
.	.	8fJ	.
=15	=15	=15	=15
2C;	2G;	2e;	2cc;
8FL	4A	4f	4cc
8E	.	.	.
8D	4A	8fL	8ddL
8FJ	.	8eJ	8ccJ
=16	=16	=16	=16
8GL	8B-L	4d	4b-
8FJ	8AJ	.	.
8EL	4G	4c	4b-
8CJ	.	.	.
8FL	8FL	8cL	4a
8EJ	8AJ	16dL	.
.	.	16eJJ	.
8DL	[4d	[4f	8b-L
8CJ	.	.	8aJ
=17	=17	=17	=17
8BB-L	8dL]	8fL]	2g
8GGJ	8B-J	16eL	.
.	.	16dJJ	.
4C	8GL	4e	.
.	16cL	.	.
.	16B-JJ	.	.
2FF;	2A;	2c;	2f;
==	==	==	==
*-	*-	*-	*-
!!!hum2abc: -Q ''
!!!title: @{PC#}. @{OTL@@DE}
!!!YOR1: 371 vierstimmige Choralges&auml;nge von Johann Sebastian Bach, 
!!!YOR2: 4th ed. by Alfred D&ouml;rffel (Leipzig: Breitkopf und H&auml;rtel, 
!!!YOR2: c.1875). 178 pp. Plate "V.A.10".  reprint: J.S. Bach, 371 Four-Part 
!!!YOR4: Chorales (New York: Associated Music Publishers, Inc., c.1940).
!!!SMS: B&H, 4th ed, Alfred D&ouml;rffel, c.1875, plate V.A.10
!!!EED:  Craig Stuart Sapp
!!!EEV:  2009/05/22
